!!!SOCIAL_FUNCTION:	songs with hunting dance
!!!PDT:	1956
!!!OTL: No_53_Cow_Creek_Hunting_Dance_Song_(t).krn
!!!LANG: Non-Tone
!!!LING_GROUP: Muskogean
!!!REG: Florida
**kern
*staff1
=1-
*clefF4
*k[b-]
*M2/4
4c\
8.d\L
16c\Jk
=2
4c\
4A\
=3
2A\
=4
8A\L
8G\J
4F\
=5
4G\
4r
=6
8c\L
8c\J
4A\
=7
4c\
4A\
=8
2G\
=9
4F\
8.D\L
16D\Jk
=10
4D\
4r
=11
4A\
4c\
=12
4A\
4r
=13
8.A\L
16G\Jk
4F\
=14
4G\
4r
=15
4A\
4F\
=16||
*M3/4
2F\
8G\L
8F\J
=17
2F\
8D\L
8D\J
=18||
*M2/4
2F\
=19
2F\
=20
8A\L
8A\J
4F\
=21
4F\
4A\
=22
2A\
=23
8A\L
8G\J
4F\
=24
4G\
4r
=25
8c\L
8c\J
4d\
=26
4c\
4A\
=27
2G\
=28
4F\
4D\
=29
4D\
4r
=30
4A\
4c\
=31
4A\
4r
=32
8.A\L
16G\Jk
4F\
=33
4G\
4r
=34
4A\
4F\
=35||
*M3/4
2F\
8G\L
8F\J
=36
2F\
8D\L
8D\J
=37
2F\
4F\
==
*-
